packages/foundations/assets/icons/functional/images/navigation/gear_wheel_14.svg

<svg width="14" height="14" viewBox="0 0 14 14" fill="none" xmlns="http://www.w3.org/2000/svg">
<g clip-path="url(#clip0_187_39)">
<path fill-rule="evenodd" clip-rule="evenodd" d="M8.00627 1.43283C8.64068 1.43283 9.14377 1.93592 9.16568 2.57033V3.27033L9.34068 3.37967L9.97503 3.00783C10.15 2.89842 10.3469 2.85467 10.5438 2.85467C10.9375 2.85467 11.3313 3.05158 11.5282 3.42342L12.4469 4.95467C12.5563 5.15158 12.6 5.34842 12.6 5.54533C12.6 5.89533 12.425 6.33283 12.0094 6.55158L11.375 6.90158V7.14217L11.9875 7.51408C12.425 7.77658 12.5125 8.08283 12.5563 8.49842C12.5563 8.71717 12.5125 8.91408 12.4032 9.08908L11.5282 10.5547C11.3313 10.9047 10.9375 11.1234 10.5438 11.1234C10.325 11.1234 10.1282 11.0797 9.95319 10.9703L9.31877 10.5766L9.10002 10.7078V11.4078C9.10002 12.0422 8.57502 12.5672 7.94068 12.5672H6.03752C5.40318 12.5672 4.90002 12.0422 4.90002 11.4078V10.7078L4.68127 10.5766L4.04686 10.9703C3.87186 11.0578 3.65318 11.1234 3.45641 11.1235C3.13798 11.1232 2.70622 10.9564 2.47186 10.5547L1.59686 9.08908C1.48752 8.91408 1.44377 8.69533 1.44377 8.49842C1.44377 8.08283 1.64068 7.73283 2.01252 7.51408L2.62502 7.14217V6.90158L1.99068 6.55158C1.64068 6.35467 1.40002 5.96092 1.40002 5.54533C1.40002 5.34842 1.44377 5.15158 1.55318 4.95467L2.47186 3.42342C2.69068 3.05158 3.06252 2.85467 3.45627 2.85467C3.65318 2.85467 3.85002 2.89842 4.02502 3.00783L4.65936 3.37967L4.83436 3.27033V2.57033C4.83436 1.93592 5.35936 1.43283 5.99377 1.43283H8.00627ZM7.76568 2.81092H6.23436V4.05783L4.65936 4.99842L3.54377 4.34217L2.88752 5.45783L4.00318 6.07033L4.02502 7.95158L2.93127 8.58592L3.54377 9.63592L4.63752 8.97967L6.30002 9.87658V11.1672H7.70002V9.87658L9.34068 8.97967L10.4563 9.63592L11.0688 8.58592L9.95319 7.95158L9.99686 6.07033L11.1125 5.45783L10.4563 4.34217L9.31877 4.99842L7.76568 4.05783V2.81092ZM7.01103 5.6C7.78271 5.6 8.40002 6.21732 8.40002 6.98899C8.40002 7.78268 7.78271 8.4 7.01103 8.4C6.21734 8.4 5.60002 7.78268 5.60002 6.98899C5.60002 6.21732 6.21734 5.6 7.01103 5.6Z" fill="#1A1C1F"/>
</g>
<defs>
<clipPath id="clip0_187_39">
<rect width="14" height="14" fill="white"/>
</clipPath>
</defs>
</svg>

<svg xmlns="http://www.w3.org/2000/svg" width="14" height="14" fill="none"><g clip-path="url(#a)"><path fill="#1A1C1F" fill-rule="evenodd" d="M8.006 1.433c.635 0 1.138.503 1.16 1.137v.7l.175.11.634-.372a1.06 1.06 0 0 1 .569-.153c.393 0 .787.197.984.568l.919 1.532c.11.197.153.393.153.59 0 .35-.175.788-.59 1.007l-.635.35v.24l.613.372c.437.263.524.569.568.984 0 .22-.043.416-.153.591l-.875 1.466c-.197.35-.59.568-.984.568-.219 0-.416-.043-.59-.153l-.635-.393-.219.13v.7c0 .635-.525 1.16-1.16 1.16H6.039a1.15 1.15 0 0 1-1.138-1.16v-.7l-.219-.13-.634.393a1.4 1.4 0 0 1-.59.153c-.319 0-.75-.167-.985-.568l-.875-1.466a1.14 1.14 0 0 1-.153-.59c0-.416.197-.766.569-.985l.612-.372v-.24l-.634-.35a1.177 1.177 0 0 1-.438-1.597l.919-1.532c.219-.371.59-.568.984-.568.197 0 .394.043.569.153l.634.372.175-.11v-.7c0-.634.525-1.137 1.16-1.137zm-.24 1.378H6.234v1.247l-1.575.94-1.115-.656-.656 1.116 1.115.612.022 1.882-1.094.634.613 1.05 1.094-.656 1.662.897v1.29h1.4v-1.29l1.64-.897 1.116.656.613-1.05-1.116-.634.044-1.882 1.116-.612-.657-1.116-1.137.656-1.553-.94zM7.01 5.6c.772 0 1.389.617 1.389 1.389 0 .794-.617 1.411-1.389 1.411A1.393 1.393 0 0 1 5.6 6.989c0-.772.617-1.389 1.411-1.389" clip-rule="evenodd"/></g><defs><clipPath id="a"><path fill="#fff" d="M0 0h14v14H0z"/></clipPath></defs></svg>
